X:1
T:Dearer Than Heaven
T:Dearer Than Heaven
T:Adam Geibel
T:Mary Elizabeth Servoss, 1880
T:Public Domain Courtesy of the Cyber Hymnal™
T:Public Domain Courtesy of the Cyber Hymnal™
C:Adam Geibel
Z:Public Domain
Z:Courtesy of the Cyber Hymnal™
%%score 1 ( 2 3 )
L:1/8
Q:1/4=90
M:6/8
K:C
V:1 treble 
V:2 bass 
V:3 bass 
V:1
 [EG] | [EG]>[FA][EG] [EG][DF][CE] | [CE] [B,D]3 z [B,D]/[CE]/ | [DF][GB][FA] [FA][EG][DF] | %4
w: 1.~It|may be He’ll come in the|morn- ing, When the|sun- beams are greet- ing the|
w: 2.~It|may be He’ll come in the|noon- time, When the|spir- it is bur- dened with|
w: 3.~It|may be He’ll come in the|even- ing, When the|sun has gone down in the|
w: 4.~It|may be He’ll come at life’s|mid- night, When the|wea- ry soul longs for its|
 [CE]4 z [CE]/[DF]/ | [EG]>[FA][EG] [Ge][Af][Ge] | [Fd]3 [Fc]2 [FA] | [EG]>[EA][EG] [FB][FA][FB] | %8
w: flowers; And the|heart is o’er- flow- ing with|glad- ness, That|thrills through life’s ear- li- er|
w: care; And the|souls that should al- ways be|wait- ing, For-|get for the Lord to pre-|
w: west, When the|toil- er has ceased from his|la- bor, And|song birds are seek- ing their|
w: rest, And the|years, once so joy- ous and|hap- py, With|seed- time and har- vest have|
 [Ec]4 z ||"^Refrain" [Ec] | [Ec][Fc][Fc] [Fd][Fc][FA] | [FA] [EG]3 z [Ec]/[Fd]/ | %12
w: hours.||||
w: pare.||||
w: nest.||||
w: blest.||||
 [Ge][Af][Ge] [^Fe][Fd][Fc] | [Gd]4 [FG]/[FG]/ | [EG]>[FA][EG] [Ge][Af][Ge] | %15
w: |||
w: |||
w: |||
w: |||
 [Fd]2 [Fc] [Ac][GB][FA] | [EG]>[EA][EG] [EG][FA][DF] | [CE]4 z [CE]/[DF]/ | %18
w: |||
w: |||
w: |||
w: |||
 [EG]>[FA][EG] [Ge][Af][Ge] | [Fd]2 [Fc] ([Ac][GB])[FA] | [EG]>[FA][EG] [FG][FB][Fd] | [Ec]4 |] %22
w: ||||
w: ||||
w: ||||
w: ||||
V:2
 [C,C] | [C,C]>[C,C][C,C] [C,C][C,C][C,G,] | [G,,G,] [G,,G,]3 z [G,,G,]/[G,,G,]/ | %3
w: ~|~ ~ ~ ~ ~ ~|~ ~ ~ ~|
 [G,,G,][G,,G,][G,,G,] [G,,G,][G,,G,][B,,G,] | [C,G,]4 z [C,G,]/[C,G,]/ | %5
w: ~ ~ ~ ~ ~ ~|~ ~ ~|
 [C,C]>[C,C][C,C] [C,C][C,C][C,C] | [F,A,]3 [F,A,]2 [F,C] | [G,C]>[G,C][G,C] [G,D][G,C][G,D] | %8
w: ~ ~ ~ ~ ~ ~|~ ~ ~|~ ~ ~ ~ ~ ~|
 [C,C]4 z || [C,G,] | [F,A,][F,A,][F,A,] [F,A,][F,A,][F,C] | [C,C] [C,C]3 z [C,C]/[C,C]/ | %12
w: ~|And|so I will strive to be|rea- dy, For His|
 [C,C][C,C][C,C] [D,C][D,C][D,A,] | [G,B,]4 [G,B,]/[G,B,]/ | [C,C]>[C,C][C,C] [C,C][C,C][C,C] | %15
w: com- ing, when- e’er it may|be, For His|wel- com- ing smile of ap-|
 [F,A,]2 [F,A,] [F,C]2 [F,C] | [G,C]>[G,C][G,C] G,G,[G,,G,] | [C,G,]4 z [C,G,]/[C,G,]/ | %18
w: prov- al Will be|dear- er than Hea- ven to|me. For His|
 [C,C]>[C,C][C,C] [C,C][C,C][C,C] | [F,A,]2 [F,A,] [F,C]2 [F,C] | %20
w: wel- com- ing smile of ap-|prov- al Will be|
 [G,C]>[G,C][G,C] [G,D][G,D][G,B,] | [C,C]4 |] %22
w: dear- er than Hea- ven to|me.|
V:3
 x | x6 | x6 | x6 | x6 | x6 | x6 | x6 | x5 || x | x6 | x6 | x6 | x5 | x6 | x6 | x3 G,G, x | x6 | %18
 x6 | x6 | x6 | x4 |] %22

